icons/desktop/20/all-tabs-20.svg

<svg width="20" height="20" viewBox="0 0 20 20" fill="none" xmlns="http://www.w3.org/2000/svg">
<path d="M3.41992 16.25C3.58893 16.5379 3.86788 16.7576 4.21582 16.8105C8.04574 17.3945 11.9885 17.3936 15.8145 16.8057C16.1495 16.7537 16.42 16.536 16.584 16.25H18.4443C18.2193 17.4238 17.2958 18.348 16.0811 18.5352C14.0742 18.8441 12.0279 19 10 19C7.983 19 5.94717 18.845 3.95117 18.54C2.74137 18.3549 1.79357 17.4129 1.55859 16.25H3.41992Z" fill="black"/>
<path fill-rule="evenodd" clip-rule="evenodd" d="M10 2C11.7247 2 13.7719 2.11131 16.0488 2.45996C17.4506 2.67488 18.4998 3.88174 18.5 5.30762V11.6943C18.4998 13.0964 17.4892 14.3188 16.0811 14.5352C14.3116 14.8071 12.2677 15 10 15C8.27532 15 6.22812 14.8887 3.95117 14.54C2.54937 14.3251 1.50019 13.1183 1.5 11.6924V5.30566C1.50016 3.90357 2.51077 2.68123 3.91895 2.46484C5.68842 2.19293 7.73226 2 10 2ZM10 3.75C7.83174 3.75 5.8771 3.93522 4.18457 4.19531C3.65322 4.27711 3.25016 4.74422 3.25 5.30566V11.6924C3.25019 12.2461 3.66099 12.7254 4.2168 12.8105C6.39368 13.1438 8.35079 13.25 10 13.25C12.1683 13.25 14.1229 13.0648 15.8154 12.8047C16.3468 12.7229 16.7498 12.2558 16.75 11.6943V5.30762C16.7498 4.75392 16.339 4.27461 15.7832 4.18945C13.6063 3.85615 11.6492 3.75 10 3.75Z" fill="black"/>
</svg>

<!-- This Source Code Form is subject to the terms of the Mozilla Public
   - License, v. 2.0. If a copy of the MPL was not distributed with this
   - file, You can obtain one at http://mozilla.org/MPL/2.0/. -->
<svg xmlns="http://www.w3.org/2000/svg" width="20" height="20" fill="context-fill" fill-opacity="context-fill-opacity" viewBox="0 0 20 20">
    <path d="M3.42 16.25c.169.288.448.508.796.56 3.83.585 7.773.584 11.599-.004a1.09 1.09 0 0 0 .769-.556h1.86a2.84 2.84 0 0 1-2.363 2.285 40.1 40.1 0 0 1-12.13.005 2.91 2.91 0 0 1-2.392-2.29z" />
    <path fill-rule="evenodd" d="M10 2c1.725 0 3.772.111 6.049.46A2.89 2.89 0 0 1 18.5 5.308v6.386c0 1.402-1.01 2.625-2.419 2.841a40 40 0 0 1-12.13.005A2.89 2.89 0 0 1 1.5 11.692V5.306c0-1.402 1.01-2.625 2.419-2.841A40 40 0 0 1 10 2m0 1.75c-2.168 0-4.123.185-5.815.445a1.116 1.116 0 0 0-.935 1.11v6.387c0 .554.411 1.033.967 1.118a38.2 38.2 0 0 0 11.598-.005c.532-.082.935-.55.935-1.11V5.307c0-.554-.411-1.033-.967-1.119A38 38 0 0 0 10 3.75" clip-rule="evenodd" />
</svg>
